icon/lg/apache_cloudstack.svg

<svg width="257" height="208" xmlns="http://www.w3.org/2000/svg" preserveAspectRatio="xMidYMid"><path d="M24.231 202.41s7.33 5.497 23.636 4.416c0 0 2.858-.049 5-3.243 0 0 1.753-3.981-5.805-2.248 0 0-9.282 1.328-17.959-3.169 0 0-18.237-10.161-21.305-25.443 0 0-5.566-15.068 3.366-30.846 0 0 5.523-9.348 11.752-13.668 0 0 10.381-9.849 25.748-7.083 0 0 7.567.603 22.65 12.821 0 0 4.84 1.363 3.712-2.867 0 0-3.993-10.149-20.252-13.814 0 0-.422-13.485 6.203-19.359 0 0 11.324-21.427 36.04-19.078 0 0 22.273-.517 34.349 28.288 0 0 3.853 12.874 1.175 23.024l15.788-2.819-15.084-30.308s-9.445-19.288-34.255-23.6c0 0-22.413-5.158-41.302 18.384 0 0-8.177 13.955-8.741 23.964 0 0-27.629-7.048-44.686 26.22 0 0-16.446 37.544 19.97 60.428" fill="#369AC9"/><path d="M167.726 191.179s30.927-27.065 2.17-54.695c0 0 1.58-7.753-2.17-10.432 0 0-1.495-3.805-11.785 1.128 0 0-8.599 2.82-16.07-3.806l-8.881 7.19s-11.982 5.356-17.621 18.466c0 0-3.806 11.841 0 16.352 0 0 2.819 1.41 4.511-1.973 0 0-1.41-11.841 8.317-22.696 0 0 21.629-17.363 43.208 5.896 0 0 12.925 18.914-1.679 36.394 0 0-7.979 6.908-7.133 8.176 0 0 2.284 2.115 7.133 0M91.66 72.936s-.189-10.741 3.102-19.856c0 0 1.705-4.648 7.706-13.721.946-1.432 3.947-5.263 4.887-8.74 0 0 5.075-15.976-13.11-18.509 0 0-5.794-1.032-9.585 2.015-2.397 1.927-4.652 3.055-6.391 3.525 0 0-8.6 2.96-8.318-2.538 0 0-1.55-8.176 17.903-10.431 0 0 23.802-4.088 26.561 14.801 0 0 3.888 11.56-10.209 28.899 0 0-7.753 12.006-5.92 25.033 1.833 13.028 0 .622 0 .622l-2.397 1.551-4.651-2.173" fill="#369AC9"/><path d="M131.695 97.648s12.646-3.1 14.714-13.625l-18.044-1.221s-4.886-1.715-7.518-10.021c0 0-10.901-5.862-10.149-14.32 0 0 1.691-10.525 10.714-12.029 0 0 9.41-2.326 11.324 12.71 0 0 4.427 12.735-4.201 13.639 0 0-1.861 4.099 4.905 4.288 0 0 8.249 2.443 14.086-2.444 0 0 3.957-3.642 8.657-2.949 0 0 1.01-1.797-.964-2.924 0 0-11.7-10.009-13.744-24.176 0 0-9.656-1.34-10.854-8.176 0 0-2.256-10.573 6.484-12.687 0 0 5.569-1.269 8.388 0 0 0 7.119-19.383 27.418-22.696 0 .001 16.775-3.946 22.766 8.74 0 0 2.467 6.908 1.128 12.687 0 0-1.41 6.344.07 7.965 0 0 5.427-1.269 7.683 2.255 2.255 3.524 3.242 11.066-1.269 12.828 0 0 1.339 5.991-3.172 10.079 0 0-14.308 8.317-18.396 15.366 0 0-1.26 1.609-1.903 2.173-1.547 1.358-3.606 2.521-5.497 3.019 0 0-1.7.736-3.595-.188 0 0-.564 2.819 2.608 3.313 0 0 6.026-.835 12.581-2.844l47.4-16.951s-2.203-5.92-.441-8.81c0 0 .975-1.536 1.862-1.873 1.644-.625 3.606-3.753 3.689-6.197 0 0-.458-6.179 3.982-6.461 0 0 4.252-.258 3.9 4.957l-.305 3.431s6.502-2.467 8.678 1.973c0 0 4.395 8.911-.265 16.1 0 0-6.857 6.759-15.885 2.507l-3.1-1.903S180.311 85.996 179.677 87.5c0 0-4.329 2.184-7.542 8.035 0 0-11.066 19.736-16.775 24.951 0 0-3.735 4.511-6.413 5.639l1.057 2.819h-12.053l-1.409-9.075-1.763-17.779-3.084-4.442" fill="#369AC9"/><path d="M182.442 17.086s7.472-4.652 10.291.423c0 0-.846 6.907-.423 12.546 0 0 .846 6.625 6.203 10.431 0 0 5.075 5.639 0 10.714 0 0-15.224 10.713-18.044 17.198 0 0-6.766 9.585-17.762 2.255 0 0-14.378-8.74-11.841-21.427 0 0 1.692-2.537 5.357-3.383-.001 0-9.022-14.66-.846-25.092 0 0 13.251-16.916 27.065-3.665M142.831 29.773s-3.031 4.44-3.172 11.066c0 0-4.651-.705-5.074-5.146 0 0-1.199-6.414 4.51-7.471 0 0 2.89-.705 3.736 1.551" fill="#B9DEEB"/><path d="M195.552 34.777s3.101-2.114 5.216 0c0 0 3.157 3.08 1.339 5.709 0 0-1.339.776-2.185 0 0 0-1.779-2.201-3.664-3.453 0 0-1.34-.917-.706-2.256M129.862 59.657s-1.409-7.189-6.108-9.163c0 0-3.384-.891-5.921 2.022 0 0-4.652 4.746-3.101 10.525 0 0 2.679 6.344 9.773 7.66 0 0 3.995 1.221 6.297-4.841 0 0 .579-1.887-.94-6.203M136.206 104.297s9.174-3.729 20.486-17.479c0 0 3.101-4.324 7.425-3.196 0 0 6.297 1.503 2.255 11.559 0 0-7.894 24.905-26.689 27.442 0 0 0-13.063-3.477-18.326M66.098 129.765s-33.079-6.203-44.732 21.427c0 0-9.962 32.892 30.636 43.417 0 0 29.133 4.699 65.409-1.128 0 0 42.176-5.45 50.315-11.653 0 0-3.703 14.097-42.985 20.3 0 0-57.327 8.27-76.686 4.511 0 0 2.819.375 5.262-3.759 0 0 .941-3.008-7.518-1.316 0 0-19.17 2.067-32.328-16.916 0 0-21.614-29.197 8.458-55.479 0 0 18.044-19.892 44.169.596" fill="#B9DEEB"/><path d="M171.553 35.236s-.388-3.877-5.709-4.194c0 0-5.04-.987-6.273 3.841 0 0 .458 1.903 2.572.599 0 0-.006-2.835 3.806-2.996 0 0 3.63.667 4.018 3.452 0 0 1.48.566 1.586-.702M179.641 35.817s.282-3.947 3.559-4.688c0 0 4.758-1.532 6.837 2.732 0 0 .74 1.728.07 2.203 0 0-1.488.546-1.938-2.044 0 0-1.198-2.344-3.577-1.851 0 0-2.114.23-2.643 2.449 0 0-.105 2.344-2.308 1.199M161.767 48.991c1.079-.665 2.634-.095 3.62.507a36.868 36.868 0 0 0 3.373 1.807c2.225 1.053 4.536 1.734 7.056 1.727 1.307-.003 2.699.133 3.983-.048 1.07-.15 2.17-.269 3.239-.377 1.3-.131 2.651-.403 3.833-1.021.591-.309 1.183-.555 1.754-.904.532-.326 1.023-.758 1.537-1.08.236-.148.875-.621 1.16-.57.38.07.742 1.097.642 1.456-.721.213-1.412.787-2.102 1.121-.957.463-1.85 1.092-2.724 1.694-1.237.855-2.685 2.058-3.473 3.347-1.845 3.023-3.94 6.102-7.001 7.988-1.608.99-3.411 1.27-5.276 1.27-1.771-.001-4.013-.324-5.538-1.277-1.482-.925-2.629-2.094-3.099-3.798-.465-1.689.003-3.381.003-5.096 0-1.337.356-3.319-.281-4.491-.217-.404-.3-.284-.661-.596-.277-.241-.418-.695-.285-1.212.021-.089.149-.454.24-.447M175.535 43.499c0 .789-.67 1.428-1.497 1.428-.828 0-1.499-.639-1.499-1.428 0-.788.671-1.427 1.499-1.427.827 0 1.497.639 1.497 1.427M181.667 43.253c0 .788-.671 1.427-1.498 1.427s-1.497-.639-1.497-1.427c0-.789.67-1.427 1.497-1.427.827 0 1.498.638 1.498 1.427" fill="#369AC9"/><path d="M234.701 56.157s-2.197-3.819.749-6.839c0 0 3.857-1.322 3.962-4.312 0 0-1.063-4.705 1.135-6.349 0 0 3.645-2.501 4.115 1.836 0 0 .794 4.02-.515 6.555 0 0 5.376-1.38 7.807 0 2.432 1.381 3.274 8.755 1.077 12.575 0 0-2.619 4.574-9.96 4.263 0 0-6.546.267-6.687-4.487 0 0-.631-2.028-1.683-3.242" fill="#B9DEEB"/></svg>

<?xml version="1.0" encoding="UTF-8" standalone="no"?>
<svg viewBox="0 0 257 208" version="1.1" xmlns="http://www.w3.org/2000/svg" xmlns:xlink="http://www.w3.org/1999/xlink" preserveAspectRatio="xMidYMid" height="1em" width="1em">
  <g>
    <path d="M24.231,202.41 C24.231,202.41 31.561,207.907 47.867,206.826 C47.867,206.826 50.725,206.777 52.867,203.583 C52.867,203.583 54.62,199.602 47.062,201.335 C47.062,201.335 37.78,202.663 29.103,198.166 C29.103,198.166 10.866,188.005 7.798,172.723 C7.798,172.723 2.232,157.655 11.164,141.877 C11.164,141.877 16.687,132.529 22.916,128.209 C22.916,128.209 33.297,118.36 48.664,121.126 C48.664,121.126 56.231,121.729 71.314,133.947 C71.314,133.947 76.154,135.31 75.026,131.08 C75.026,131.08 71.033,120.931 54.774,117.266 C54.774,117.266 54.352,103.781 60.977,97.907 C60.977,97.907 72.301,76.48 97.017,78.829 C97.017,78.829 119.29,78.312 131.366,107.117 C131.366,107.117 135.219,119.991 132.541,130.141 L148.329,127.322 L133.245,97.014 C133.245,97.014 123.8,77.726 98.99,73.414 C98.99,73.414 76.577,68.256 57.688,91.798 C57.688,91.798 49.511,105.753 48.947,115.762 C48.947,115.762 21.318,108.714 4.261,141.982 C4.261,141.982 -12.185,179.526 24.231,202.41" fill="#369AC9"/>
    <path d="M167.726,191.179 C167.726,191.179 198.653,164.114 169.896,136.484 C169.896,136.484 171.476,128.731 167.726,126.052 C167.726,126.052 166.231,122.247 155.941,127.18 C155.941,127.18 147.342,130 139.871,123.374 L130.99,130.564 C130.99,130.564 119.008,135.92 113.369,149.03 C113.369,149.03 109.563,160.871 113.369,165.382 C113.369,165.382 116.188,166.792 117.88,163.409 C117.88,163.409 116.47,151.568 126.197,140.713 C126.197,140.713 147.826,123.35 169.405,146.609 C169.405,146.609 182.33,165.523 167.726,183.003 C167.726,183.003 159.747,189.911 160.593,191.179 C160.593,191.179 162.877,193.294 167.726,191.179" fill="#369AC9"/>
    <path d="M91.66,72.936 C91.66,72.936 91.471,62.195 94.762,53.08 C94.762,53.08 96.467,48.432 102.468,39.359 C103.414,37.927 106.415,34.096 107.355,30.619 C107.355,30.619 112.43,14.643 94.245,12.11 C94.245,12.11 88.451,11.078 84.66,14.125 C82.263,16.052 80.008,17.18 78.269,17.65 C78.269,17.65 69.669,20.61 69.951,15.112 C69.951,15.112 68.401,6.936 87.854,4.681 C87.854,4.681 111.656,0.593 114.415,19.482 C114.415,19.482 118.303,31.042 104.206,48.381 C104.206,48.381 96.453,60.387 98.286,73.414 C100.119,86.442 98.286,74.036 98.286,74.036 L95.889,75.587 L91.238,73.414" fill="#369AC9"/>
    <path d="M131.695,97.648 C131.695,97.648 144.341,94.548 146.409,84.023 L128.365,82.802 C128.365,82.802 123.479,81.087 120.847,72.781 C120.847,72.781 109.946,66.919 110.698,58.461 C110.698,58.461 112.389,47.936 121.412,46.432 C121.412,46.432 130.822,44.106 132.736,59.142 C132.736,59.142 137.163,71.877 128.535,72.781 C128.535,72.781 126.674,76.88 133.44,77.069 C133.44,77.069 141.689,79.512 147.526,74.625 C147.526,74.625 151.483,70.983 156.183,71.676 C156.183,71.676 157.193,69.879 155.219,68.752 C155.219,68.752 143.519,58.743 141.475,44.576 C141.475,44.576 131.819,43.236 130.621,36.4 C130.621,36.4 128.365,25.827 137.105,23.713 C137.105,23.713 142.674,22.444 145.493,23.713 C145.493,23.713 152.612,4.33 172.911,1.017 C172.911,1.018 189.686,-2.929 195.677,9.757 C195.677,9.757 198.144,16.665 196.805,22.444 C196.805,22.444 195.395,28.788 196.875,30.409 C196.875,30.409 202.302,29.14 204.558,32.664 C206.813,36.188 207.8,43.73 203.289,45.492 C203.289,45.492 204.628,51.483 200.117,55.571 C200.117,55.571 185.809,63.888 181.721,70.937 C181.721,70.937 180.461,72.546 179.818,73.11 C178.271,74.468 176.212,75.631 174.321,76.129 C174.321,76.129 172.621,76.865 170.726,75.941 C170.726,75.941 170.162,78.76 173.334,79.254 C173.334,79.254 179.36,78.419 185.915,76.41 L233.315,59.459 C233.315,59.459 231.112,53.539 232.874,50.649 C232.874,50.649 233.849,49.113 234.736,48.776 C236.38,48.151 238.342,45.023 238.425,42.579 C238.425,42.579 237.967,36.4 242.407,36.118 C242.407,36.118 246.659,35.86 246.307,41.075 L246.002,44.506 C246.002,44.506 252.504,42.039 254.68,46.479 C254.68,46.479 259.075,55.39 254.415,62.579 C254.415,62.579 247.558,69.338 238.53,65.086 L235.43,63.183 C235.43,63.183 180.311,85.996 179.677,87.5 C179.677,87.5 175.348,89.684 172.135,95.535 C172.135,95.535 161.069,115.271 155.36,120.486 C155.36,120.486 151.625,124.997 148.947,126.125 L150.004,128.944 L137.951,128.944 L136.542,119.869 L134.779,102.09 L131.695,97.648" fill="#369AC9"/>
    <path d="M182.442,17.086 C182.442,17.086 189.914,12.434 192.733,17.509 C192.733,17.509 191.887,24.416 192.31,30.055 C192.31,30.055 193.156,36.68 198.513,40.486 C198.513,40.486 203.588,46.125 198.513,51.2 C198.513,51.2 183.289,61.913 180.469,68.398 C180.469,68.398 173.703,77.983 162.707,70.653 C162.707,70.653 148.329,61.913 150.866,49.226 C150.866,49.226 152.558,46.689 156.223,45.843 C156.222,45.843 147.201,31.183 155.377,20.751 C155.377,20.751 168.628,3.835 182.442,17.086" fill="#B9DEEB"/>
    <path d="M142.831,29.773 C142.831,29.773 139.8,34.213 139.659,40.839 C139.659,40.839 135.008,40.134 134.585,35.693 C134.585,35.693 133.386,29.279 139.095,28.222 C139.095,28.222 141.985,27.517 142.831,29.773" fill="#B9DEEB"/>
    <path d="M195.552,34.777 C195.552,34.777 198.653,32.663 200.768,34.777 C200.768,34.777 203.925,37.857 202.107,40.486 C202.107,40.486 200.768,41.262 199.922,40.486 C199.922,40.486 198.143,38.285 196.258,37.033 C196.258,37.033 194.918,36.116 195.552,34.777" fill="#B9DEEB"/>
    <path d="M129.862,59.657 C129.862,59.657 128.453,52.468 123.754,50.494 C123.754,50.494 120.37,49.603 117.833,52.516 C117.833,52.516 113.181,57.262 114.732,63.041 C114.732,63.041 117.411,69.385 124.505,70.701 C124.505,70.701 128.5,71.922 130.802,65.86 C130.802,65.86 131.381,63.973 129.862,59.657" fill="#B9DEEB"/>
    <path d="M136.206,104.297 C136.206,104.297 145.38,100.568 156.692,86.818 C156.692,86.818 159.793,82.494 164.117,83.622 C164.117,83.622 170.414,85.125 166.372,95.181 C166.372,95.181 158.478,120.086 139.683,122.623 C139.683,122.623 139.683,109.56 136.206,104.297" fill="#B9DEEB"/>
    <path d="M66.098,129.765 C66.098,129.765 33.019,123.562 21.366,151.192 C21.366,151.192 11.404,184.084 52.002,194.609 C52.002,194.609 81.135,199.308 117.411,193.481 C117.411,193.481 159.587,188.031 167.726,181.828 C167.726,181.828 164.023,195.925 124.741,202.128 C124.741,202.128 67.414,210.398 48.055,206.639 C48.055,206.639 50.874,207.014 53.317,202.88 C53.317,202.88 54.258,199.872 45.799,201.564 C45.799,201.564 26.629,203.631 13.471,184.648 C13.471,184.648 -8.143,155.451 21.929,129.169 C21.929,129.169 39.973,109.277 66.098,129.765" fill="#B9DEEB"/>
    <path d="M171.553,35.236 C171.553,35.236 171.165,31.359 165.844,31.042 C165.844,31.042 160.804,30.055 159.571,34.883 C159.571,34.883 160.029,36.786 162.143,35.482 C162.143,35.482 162.137,32.647 165.949,32.486 C165.949,32.486 169.579,33.153 169.967,35.938 C169.967,35.938 171.447,36.504 171.553,35.236" fill="#369AC9"/>
    <path d="M179.641,35.817 C179.641,35.817 179.923,31.87 183.2,31.129 C183.2,31.129 187.958,29.597 190.037,33.861 C190.037,33.861 190.777,35.589 190.107,36.064 C190.107,36.064 188.619,36.61 188.169,34.02 C188.169,34.02 186.971,31.676 184.592,32.169 C184.592,32.169 182.478,32.399 181.949,34.618 C181.949,34.618 181.844,36.962 179.641,35.817" fill="#369AC9"/>
    <path d="M161.767,48.991 C162.846,48.326 164.401,48.896 165.387,49.498 C166.458,50.152 167.625,50.767 168.76,51.305 C170.985,52.358 173.296,53.039 175.816,53.032 C177.123,53.029 178.515,53.165 179.799,52.984 C180.869,52.834 181.969,52.715 183.038,52.607 C184.338,52.476 185.689,52.204 186.871,51.586 C187.462,51.277 188.054,51.031 188.625,50.682 C189.157,50.356 189.648,49.924 190.162,49.602 C190.398,49.454 191.037,48.981 191.322,49.032 C191.702,49.102 192.064,50.129 191.964,50.488 C191.243,50.701 190.552,51.275 189.862,51.609 C188.905,52.072 188.012,52.701 187.138,53.303 C185.901,54.158 184.453,55.361 183.665,56.65 C181.82,59.673 179.725,62.752 176.664,64.638 C175.056,65.628 173.253,65.908 171.388,65.908 C169.617,65.907 167.375,65.584 165.85,64.631 C164.368,63.706 163.221,62.537 162.751,60.833 C162.286,59.144 162.754,57.452 162.754,55.737 C162.754,54.4 163.11,52.418 162.473,51.246 C162.256,50.842 162.173,50.962 161.812,50.65 C161.535,50.409 161.394,49.955 161.527,49.438 C161.548,49.349 161.676,48.984 161.767,48.991" fill="#369AC9"/>
    <path d="M175.535,43.499 C175.535,44.288 174.865,44.927 174.038,44.927 C173.21,44.927 172.539,44.288 172.539,43.499 C172.539,42.711 173.21,42.072 174.038,42.072 C174.865,42.072 175.535,42.711 175.535,43.499" fill="#369AC9"/>
    <path d="M181.667,43.253 C181.667,44.041 180.996,44.68 180.169,44.68 C179.342,44.68 178.672,44.041 178.672,43.253 C178.672,42.464 179.342,41.826 180.169,41.826 C180.996,41.826 181.667,42.464 181.667,43.253" fill="#369AC9"/>
    <path d="M234.701,56.157 C234.701,56.157 232.504,52.338 235.45,49.318 C235.45,49.318 239.307,47.996 239.412,45.006 C239.412,45.006 238.349,40.301 240.547,38.657 C240.547,38.657 244.192,36.156 244.662,40.493 C244.662,40.493 245.456,44.513 244.147,47.048 C244.147,47.048 249.523,45.668 251.954,47.048 C254.386,48.429 255.228,55.803 253.031,59.623 C253.031,59.623 250.412,64.197 243.071,63.886 C243.071,63.886 236.525,64.153 236.384,59.399 C236.384,59.399 235.753,57.371 234.701,56.157" fill="#B9DEEB"/>
  </g>
</svg>
